X:1
T:Vivement vendredi
R:Slow reel
C:Jean BANWARTH
S:Jean BANWARTH
D:CEOL "The last order" ref. EDMI 01
M:2/2
L:1/8
Q:1/8=240
K:D
|:"Bm"B,DFA     Bcde | "G"efed "A"cedc | "Bm"BdcB  "F#m"A3B  |   "A"c/d/edB "A"cAFA  \
| "Bm"B,DFA "Bm"Bcde | "G"efed "A"cedc | "Bm"BdcB    "A"ABcA |1 "Bm"B2Ac       B4    :|2 "Bm"B2Ac  Bcde ||
|: "D"effe   "D"fecd | "A"e2ef "A"ecBA | "Bm"FBB/B/B "G"GBde |   "D"efed    "A"cdeA  \
|  "D"f2fe   "D"fecd | "A"e2ef "A"ecBA | "Bm"FBB/B/B "G"GBgf |1  "A"eacA    "Bm"Bcde :|2 "A"eacA "Bm"B4 |]
